; generated by PrusaSlicer 2.4.2+win64 on 2022-06-02 at 19:33:23 UTC


;
;

;
;
; 

; external perimeters extrusion width = 0.45mm
; perimeters extrusion width = 0.45mm
; infill extrusion width = 0.45mm
; solid infill extrusion width = 0.45mm
; top infill extrusion width = 0.40mm
; support material extrusion width = 0.35mm
; first layer extrusion width = 0.42mm

M73 P0 R43
M201 X2500 Y2500 Z400 E5000 ; sets maximum accelerations, mm/sec^2
M203 X180 Y180 Z12 E80 ; sets maximum feedrates, mm / sec
M204 P1250 R1250 T2500 ; sets acceleration (P, T) and retract acceleration (R), mm/sec^2
M205 X8.00 Y8.00 Z2.00 E10.00 ; sets the jerk limits, mm/sec
M205 S0 T0 ; sets the minimum extruding and travel feed rate, mm/sec
M107
;TYPE:Custom
M862.3 P "MINI" ; printer model check
G90 ; use absolute coordinates
M83 ; extruder relative mode
M104 S170 ; set extruder temp for bed leveling
M140 S60 ; set bed temp
M109 R170 ; wait for bed leveling temp
M190 S60 ; wait for bed temp
M204 T1250 ; set travel acceleration
G28 ; home all without mesh bed level
G29 ; mesh bed leveling 
M204 T2500 ; restore travel acceleration
M104 S215 ; set extruder temp
G92 E0
G1 Y-2 X179 F2400
G1 Z3 F720
M109 S215 ; wait for extruder temp

; intro line
G1 X170 F1000
G1 Z0.2 F720
G1 X110 E8 F900
G1 X40 E10 F700
G92 E0

M221 S95 ; set flow
G21 ; set units to millimeters
G90 ; use absolute coordinates
M83 ; use relative distances for extrusion
M900 K0.2 ; Filament gcode LA 1.5
; ; Filament gcode LA 1.0
M107
;LAYER_CHANGE
;Z:0.2
;HEIGHT:0.2
;BEFORE_LAYER_CHANGE
G92 E0.0
;0.2


G1 E-3.2 F4200
G1 Z.2 F720
;AFTER_LAYER_CHANGE
;0.2
G1 Z.4
G1 X74.318 Y74.318 F9000
G1 Z.2 F720
G1 E3.2 F2400
M204 P800
;TYPE:Skirt/Brim
;WIDTH:0.42
G1 F1200
G1 X76.701 Y71.934 E.1057
G1 X78.307 Y70.888 E.06008
G1 X79.982 Y70.575 E.05343
G1 X100.018 Y70.575 E.62821
G1 X101.893 Y70.971 E.06008
G1 X103.299 Y71.934 E.05343
G1 X108.066 Y76.701 E.2114
G1 X109.112 Y78.307 E.06008
G1 X109.425 Y79.982 E.05343
G1 X109.425 Y100.018 E.62821
G1 X109.029 Y101.893 E.06008
G1 X108.066 Y103.299 E.05343
G1 X103.299 Y108.066 E.2114
G1 X101.693 Y109.112 E.06008
G1 X100.018 Y109.425 E.05343
G1 X79.982 Y109.425 E.62821
G1 X78.107 Y109.029 E.06008
G1 X76.701 Y108.066 E.05343
G1 X71.934 Y103.299 E.2114
G1 X70.888 Y101.693 E.06008
G1 X70.575 Y100.018 E.05343
G1 X70.575 Y79.982 E.62821
G1 X70.971 Y78.107 E.06008
G1 X71.934 Y76.701 E.05343
G1 X74.275 Y74.36 E.10382
M204 P1000
G1 X74.542 Y74.627 F9000
M204 P800
G1 F1200
G1 X76.968 Y72.2 E.10758
G1 X78.515 Y71.212 E.05756
G1 X79.982 Y70.952 E.04671
G1 X100.018 Y70.952 E.62821
G1 X101.811 Y71.347 E.05756
G1 X103.032 Y72.2 E.04671
G1 X107.8 Y76.968 E.2114
G1 X108.788 Y78.515 E.05756
G1 X109.048 Y79.982 E.04671
G1 X109.048 Y100.018 E.62821
G1 X108.653 Y101.811 E.05756
G1 X107.8 Y103.032 E.04671
M73 P1 R43
G1 X103.032 Y107.8 E.2114
G1 X101.485 Y108.788 E.05756
G1 X100.018 Y109.048 E.04671
G1 X79.982 Y109.048 E.62821
G1 X78.189 Y108.653 E.05756
G1 X76.968 Y107.8 E.04671
G1 X72.2 Y103.032 E.2114
G1 X71.212 Y101.485 E.05756
G1 X70.952 Y100.018 E.04671
G1 X70.952 Y79.982 E.62821
G1 X71.347 Y78.189 E.05756
G1 X72.2 Y76.968 E.04671
G1 X74.499 Y74.669 E.10194
M204 P1000
G1 X74.766 Y74.936 F9000
M204 P800
G1 F1200
G1 X77.235 Y72.467 E.10946
G1 X78.721 Y71.54 E.05492
G1 X79.982 Y71.329 E.0401
G1 X100.018 Y71.329 E.62821
G1 X101.725 Y71.724 E.05492
G1 X102.765 Y72.467 E.0401
G1 X107.533 Y77.235 E.2114
G1 X108.46 Y78.721 E.05492
G1 X108.671 Y79.982 E.0401
G1 X108.671 Y100.018 E.62821
G1 X108.276 Y101.725 E.05492
G1 X107.533 Y102.765 E.0401
G1 X102.765 Y107.533 E.2114
G1 X101.279 Y108.46 E.05492
G1 X100.018 Y108.671 E.0401
G1 X79.982 Y108.671 E.62821
G1 X78.275 Y108.276 E.05492
G1 X77.235 Y107.533 E.0401
G1 X72.467 Y102.765 E.2114
G1 X71.54 Y101.279 E.05492
G1 X71.329 Y100.018 E.0401
G1 X71.329 Y79.982 E.62821
G1 X71.724 Y78.275 E.05492
G1 X72.467 Y77.235 E.0401
G1 X74.724 Y74.978 E.10006
M204 P1000
G1 X74.99 Y75.245 F9000
M204 P800
G1 F1200
G1 X77.501 Y72.734 E.11135
G1 X78.923 Y71.87 E.05215
G1 X79.982 Y71.706 E.03361
G1 X100.018 Y71.706 E.62821
G1 X101.634 Y72.1 E.05215
G1 X102.499 Y72.734 E.03361
G1 X107.266 Y77.501 E.2114
G1 X108.13 Y78.923 E.05215
G1 X108.294 Y79.982 E.03361
G1 X108.294 Y100.018 E.62821
G1 X107.9 Y101.634 E.05215
G1 X107.266 Y102.499 E.03361
G1 X102.499 Y107.266 E.2114
G1 X101.077 Y108.13 E.05215
G1 X100.018 Y108.294 E.03361
G1 X79.982 Y108.294 E.62821
G1 X78.366 Y107.9 E.05215
G1 X77.501 Y107.266 E.03361
G1 X72.734 Y102.499 E.2114
G1 X71.87 Y101.077 E.05215
G1 X71.706 Y100.018 E.03361
G1 X71.706 Y79.982 E.62821
G1 X72.1 Y78.366 E.05215
G1 X72.734 Y77.501 E.03361
G1 X74.948 Y75.287 E.09818
M204 P1000
G1 X75.214 Y75.554 F9000
M204 P800
G1 F1200
G1 X77.768 Y73 E.11323
G1 X79.121 Y72.204 E.04923
G1 X79.982 Y72.083 E.02726
G1 X100.018 Y72.083 E.62821
G1 X101.538 Y72.477 E.04923
G1 X102.232 Y73 E.02726
G1 X107 Y77.768 E.2114
G1 X107.796 Y79.121 E.04923
G1 X107.917 Y79.982 E.02726
G1 X107.917 Y100.018 E.62821
G1 X107.523 Y101.538 E.04923
G1 X107 Y102.232 E.02726
G1 X102.232 Y107 E.2114
G1 X100.879 Y107.796 E.04923
G1 X100.018 Y107.917 E.02726
G1 X79.982 Y107.917 E.62821
G1 X78.462 Y107.523 E.04923
G1 X77.768 Y107 E.02726
G1 X73 Y102.232 E.2114
G1 X72.204 Y100.879 E.04923
G1 X72.083 Y100.018 E.02726
G1 X72.083 Y79.982 E.62821
G1 X72.477 Y78.462 E.04923
G1 X73 Y77.768 E.02726
G1 X75.172 Y75.596 E.09629
M204 P1000
G1 X75.439 Y75.863 F9000
M204 P800
G1 F1200
G1 X78.035 Y73.267 E.11511
G1 X79.982 Y72.46 E.06609
G1 X100.018 Y72.46 E.62821
G1 X101.965 Y73.267 E.06609
M73 P1 R42
G1 X106.733 Y78.035 E.2114
G1 X107.54 Y79.982 E.06609
G1 X107.54 Y100.018 E.62821
G1 X106.733 Y101.965 E.06609
G1 X101.965 Y106.733 E.2114
G1 X100.018 Y107.54 E.06609
M73 P2 R42
G1 X79.982 Y107.54 E.62821
G1 X78.035 Y106.733 E.06609
G1 X73.267 Y101.965 E.2114
G1 X72.46 Y100.018 E.06609
G1 X72.46 Y79.982 E.62821
G1 X73.267 Y78.035 E.06609
G1 X75.396 Y75.905 E.09441
M204 P1000
G1 X75.663 Y76.172 F9000
M204 P800
G1 F1200
G1 X78.301 Y73.534 E.11699
G1 X79.982 Y72.837 E.05704
G1 X100.018 Y72.837 E.62821
G1 X101.699 Y73.534 E.05704
G1 X106.466 Y78.301 E.2114
G1 X107.163 Y79.982 E.05704
G1 X107.163 Y100.018 E.62821
G1 X106.466 Y101.699 E.05704
G1 X101.699 Y106.466 E.2114
G1 X100.018 Y107.163 E.05704
G1 X79.982 Y107.163 E.62821
G1 X78.301 Y106.466 E.05704
G1 X73.534 Y101.699 E.2114
G1 X72.837 Y100.018 E.05704
G1 X72.837 Y79.982 E.62821
G1 X73.534 Y78.301 E.05704
G1 X75.62 Y76.214 E.09253
M204 P1000
G1 E-2.24 F4200
;WIPE_START
G1 F7200
G1 X76.784 Y75.051 E-.912
;WIPE_END
G1 E-.048 F4200
G1 Z.4 F720
G1 X84.26 Y84.595 F9000
G1 Z.2 F720
G1 E3.2 F2400
M204 P800
G1 F1200
G1 X84.878 Y84.006 E.02677
G1 X85.556 Y83.487 E.02677
G1 X86.327 Y83.023 E.02823
G1 X87.103 Y82.667 E.02677
G1 X87.913 Y82.397 E.02677
G1 X88.728 Y82.219 E.02614
G1 X89.577 Y82.127 E.02677
G1 X90.41 Y82.126 E.02612
G1 X91.253 Y82.216 E.02658
G1 X92.087 Y82.397 E.02676
G1 X92.897 Y82.667 E.02677
G1 X93.673 Y83.023 E.02677
G1 X94.405 Y83.461 E.02677
G1 X95.087 Y83.976 E.02677
G1 X95.722 Y84.576 E.02742
G1 X96.275 Y85.227 E.02678
G1 X96.755 Y85.933 E.02677
G1 X97.155 Y86.687 E.02677
G1 X97.466 Y87.466 E.02629
G1 X97.705 Y88.328 E.02805
G1 X97.841 Y89.171 E.02676
G1 X97.885 Y90.018 E.02659
G1 X97.836 Y90.87 E.02677
G1 X97.696 Y91.712 E.02677
G1 X97.466 Y92.534 E.02677
G1 X97.155 Y93.313 E.02629
G1 X96.755 Y94.067 E.02677
G1 X96.279 Y94.769 E.02659
G1 X95.726 Y95.42 E.02677
G1 X95.122 Y95.994 E.02614
G1 X94.444 Y96.513 E.02677
G1 X93.673 Y96.977 E.02823
G1 X92.897 Y97.333 E.02677
G1 X92.087 Y97.603 E.02677
G1 X91.272 Y97.781 E.02614
G1 X90.423 Y97.873 E.02677
G1 X89.59 Y97.874 E.02612
G1 X88.747 Y97.784 E.02658
G1 X87.913 Y97.603 E.02676
G1 X87.103 Y97.333 E.02677
G1 X86.328 Y96.977 E.02676
G1 X85.561 Y96.516 E.02806
G1 X84.898 Y96.011 E.02613
G1 X84.278 Y95.424 E.02677
G1 X83.734 Y94.785 E.02631
G1 X83.253 Y94.08 E.02676
G1 X82.852 Y93.327 E.02677
G1 X82.534 Y92.534 E.02676
G1 X82.295 Y91.672 E.02805
G1 X82.159 Y90.829 E.02676
G1 X82.115 Y89.982 E.02659
G1 X82.164 Y89.13 E.02676
G1 X82.3 Y88.303 E.02629
G1 X82.529 Y87.48 E.02677
G1 X82.845 Y86.687 E.02677
G1 X83.245 Y85.933 E.02676
G1 X83.721 Y85.231 E.0266
G1 X84.221 Y84.641 E.02425
M204 P1000
G1 X84.509 Y84.884 F9000
M204 P800
G1 F1200
G1 X85.13 Y84.286 E.02704
G1 X85.776 Y83.793 E.02549
G1 X86.495 Y83.361 E.02628
G1 X87.233 Y83.021 E.02549
G1 X88.004 Y82.763 E.02549
G1 X88.798 Y82.589 E.02549
G1 X89.606 Y82.503 E.02549
G1 X90.399 Y82.503 E.02486
G1 X91.202 Y82.589 E.02532
G1 X91.996 Y82.763 E.02549
G1 X92.767 Y83.021 E.02549
G1 X93.505 Y83.361 E.02549
G1 X94.203 Y83.779 E.02549
G1 X94.85 Y84.27 E.02548
G1 X95.455 Y84.842 E.02612
G1 X95.981 Y85.462 E.02548
G1 X96.437 Y86.136 E.02549
G1 X96.817 Y86.854 E.02549
G1 X97.112 Y87.596 E.02502
G1 X97.335 Y88.399 E.02612
G1 X97.465 Y89.201 E.02548
G1 X97.507 Y90.007 E.02532
G1 X97.463 Y90.819 E.02549
G1 X97.33 Y91.621 E.02549
G1 X97.112 Y92.404 E.02549
G1 X96.817 Y93.146 E.02503
G1 X96.437 Y93.864 E.02549
G1 X95.984 Y94.533 E.02532
G1 X95.459 Y95.154 E.02548
G1 X94.87 Y95.714 E.02549
G1 X94.224 Y96.207 E.02549
G1 X93.505 Y96.639 E.02628
G1 X92.767 Y96.979 E.02549
G1 X91.996 Y97.237 E.02549
G1 X91.202 Y97.411 E.02549
G1 X90.394 Y97.497 E.02549
G1 X89.601 Y97.497 E.02486
G1 X88.798 Y97.411 E.02532
G1 X88.004 Y97.237 E.02549
G1 X87.233 Y96.979 E.02549
G1 X86.495 Y96.639 E.02548
G1 X85.781 Y96.21 E.02612
G1 X85.134 Y95.717 E.02548
G1 X84.545 Y95.158 E.02549
G1 X84.028 Y94.549 E.02504
G1 X83.571 Y93.877 E.02549
G1 X83.189 Y93.159 E.02549
G1 X82.888 Y92.404 E.02548
G1 X82.665 Y91.601 E.02612
G1 X82.535 Y90.799 E.02548
G1 X82.493 Y89.993 E.02532
G1 X82.537 Y89.181 E.02549
G1 X82.666 Y88.393 E.02503
G1 X82.883 Y87.61 E.02549
G1 X83.183 Y86.854 E.02549
G1 X83.563 Y86.136 E.02549
G1 X84.016 Y85.467 E.02532
G1 X84.47 Y84.93 E.02205
M204 P1000
; printing object assist_wheel.stl id:0 copy 0
G1 E-2.24 F4200
;WIPE_START
G1 F7200
G1 X85.13 Y84.286 E-.51093
G1 X85.705 Y83.847 E-.40107
;WIPE_END
G1 E-.048 F4200
G1 Z.4 F720
G1 X99.94 Y77.732 F9000
G1 Z.2 F720
G1 E3.2 F2400
M204 P800
;TYPE:Support material
G1 F1200
G1 X102.268 Y77.732 E.07301
G1 X102.268 Y80.06 E.07301
G1 X104.597 Y80.06 E.07301
G1 X104.597 Y99.94 E.62331
G1 X102.268 Y99.94 E.07301
G1 X102.268 Y102.268 E.07301
G1 X99.94 Y102.268 E.07301
G1 X99.94 Y104.597 E.07301
G1 X80.06 Y104.597 E.62331
G1 X80.06 Y102.268 E.07301
G1 X77.732 Y102.268 E.07301
G1 X77.732 Y99.94 E.07301
G1 X75.403 Y99.94 E.07301
G1 X75.403 Y80.06 E.62331
G1 X77.732 Y80.06 E.07301
G1 X77.732 Y77.732 E.07301
G1 X80.06 Y77.732 E.07301
G1 X80.06 Y75.403 E.07301
G1 X99.94 Y75.403 E.62331
G1 X99.94 Y77.675 E.07124
M204 P1000
G1 X89.527 Y81.281 F9000
M204 P800
G1 F1200
G1 X88.587 Y81.384 E.02964
G1 X87.664 Y81.587 E.02964
G1 X86.768 Y81.889 E.02964
G1 X85.91 Y82.286 E.02964
G1 X85.1 Y82.773 E.02964
G1 X84.668 Y83.101 E.01701
G1 X84.347 Y83.345 E.01263
G1 X83.661 Y83.995 E.02964
G1 X83.049 Y84.716 E.02964
G1 X82.518 Y85.499 E.02964
G1 X82.076 Y86.334 E.02964
G1 X81.726 Y87.212 E.02964
G1 X81.473 Y88.123 E.02964
G1 X81.32 Y89.056 E.02964
G1 X81.269 Y90 E.02964
G1 X81.32 Y90.944 E.02964
G1 X81.473 Y91.877 E.02964
G1 X81.726 Y92.788 E.02964
G1 X82.076 Y93.666 E.02964
G1 X82.518 Y94.501 E.02964
G1 X83.049 Y95.284 E.02964
G1 X83.661 Y96.005 E.02964
G1 X84.347 Y96.655 E.02964
G1 X85.1 Y97.227 E.02964
G1 X85.91 Y97.714 E.02964
G1 X86.768 Y98.111 E.02964
G1 X87.664 Y98.413 E.02964
G1 X88.587 Y98.616 E.02964
G1 X89.527 Y98.719 E.02964
G1 X90.473 Y98.719 E.02964
G1 X91.413 Y98.616 E.02964
G1 X92.336 Y98.413 E.02964
G1 X93.232 Y98.111 E.02964
G1 X94.09 Y97.714 E.02964
G1 X94.9 Y97.227 E.02964
G1 X95.332 Y96.899 E.01701
G1 X95.653 Y96.655 E.01263
G1 X96.339 Y96.005 E.02964
G1 X96.951 Y95.284 E.02964
G1 X97.482 Y94.501 E.02964
G1 X97.924 Y93.666 E.02964
G1 X98.125 Y93.162 E.01701
G1 X98.274 Y92.788 E.01263
G1 X98.527 Y91.877 E.02964
G1 X98.68 Y90.944 E.02964
G1 X98.731 Y90 E.02964
G1 X98.68 Y89.056 E.02964
G1 X98.527 Y88.123 E.02964
G1 X98.274 Y87.212 E.02964
G1 X98.074 Y86.708 E.01701
G1 X97.924 Y86.334 E.01263
G1 X97.482 Y85.499 E.02964
G1 X96.951 Y84.716 E.02964
G1 X96.339 Y83.995 E.02964
G1 X95.653 Y83.345 E.02964
G1 X94.9 Y82.773 E.02964
G1 X94.09 Y82.286 E.02964
G1 X93.232 Y81.889 E.02964
G1 X92.336 Y81.587 E.02964
G1 X91.413 Y81.384 E.02964
G1 X90.473 Y81.281 E.02964
G1 X89.584 Y81.281 E.02787
M204 P1000
G1 E-2.24 F4200
;WIPE_START
G1 F7200
G1 X90.473 Y81.281 E-.49257
G1 X91.225 Y81.363 E-.41943
;WIPE_END
G1 E-.048 F4200
G1 Z.4 F720
G1 X104.245 Y99.77 F9000
G1 Z.2 F720
G1 E3.2 F2400
M204 P800
G1 F1200
G1 X104.245 Y80.4 E.60735
G1 X103.826 Y80.4 E.01314
G1 X103.826 Y99.6 E.60203
G1 X103.407 Y99.6 E.01314
G1 X103.407 Y80.4 E.60203
G1 X102.988 Y80.4 E.01314
M73 P3 R42
G1 X102.988 Y99.6 E.60203
G1 X102.569 Y99.6 E.01314
G1 X102.569 Y80.4 E.60203
G1 X102.15 Y80.4 E.01314
G1 X102.15 Y99.6 E.60203
G1 X101.929 Y99.6 E.00694
G1 X101.929 Y101.929 E.07301
G1 X101.731 Y101.929 E.0062
G1 X101.731 Y78.071 E.74805
G1 X101.312 Y78.071 E.01314
G1 X101.312 Y101.929 E.74805
G1 X100.893 Y101.929 E.01314
G1 X100.893 Y78.071 E.74805
G1 X100.474 Y78.071 E.01314
G1 X100.474 Y101.929 E.74805
G1 X100.055 Y101.929 E.01314
G1 X100.055 Y78.071 E.74805
G1 X99.636 Y78.071 E.01314
G1 X99.636 Y101.929 E.74805
G1 X99.6 Y101.929 E.00113
G1 X99.6 Y104.258 E.07301
G1 X99.217 Y104.258 E.01201
G1 X99.217 Y75.742 E.89407
G1 X98.799 Y75.742 E.01314
G1 X98.799 Y87.831 E.37904
G1 X98.596 Y87.104 E.02369
G1 X98.38 Y86.559 E.01837
G1 X98.38 Y75.742 E.33915
G1 X97.961 Y75.742 E.01314
G1 X97.961 Y85.677 E.3115
G1 X97.773 Y85.323 E.01257
G1 X97.542 Y84.982 E.01292
G1 X97.542 Y75.742 E.28971
G1 X97.123 Y75.742 E.01314
G1 X97.123 Y84.394 E.27126
G1 X96.704 Y83.901 E.02029
G1 X96.704 Y75.742 E.25579
G1 X96.285 Y75.742 E.01314
G1 X96.285 Y83.477 E.2425
G1 X95.866 Y83.081 E.01807
G1 X95.866 Y75.742 E.23009
G1 X95.447 Y75.742 E.01314
G1 X95.447 Y82.762 E.22011
G1 X95.028 Y82.454 E.01631
G1 X95.028 Y75.742 E.21043
G1 X94.609 Y75.742 E.01314
G1 X94.609 Y82.202 E.20253
G1 X94.19 Y81.958 E.0152
G1 X94.19 Y75.742 E.19488
G1 X93.771 Y75.742 E.01314
G1 X93.771 Y81.764 E.1888
G1 X93.352 Y81.571 E.01446
G1 X93.352 Y75.742 E.18275
G1 X92.933 Y75.742 E.01314
G1 X92.933 Y81.43 E.17832
G1 X92.514 Y81.289 E.01386
G1 X92.514 Y75.742 E.1739
G1 X92.095 Y75.742 E.01314
G1 X92.095 Y81.186 E.17069
G1 X91.676 Y81.094 E.01345
G1 X91.676 Y75.742 E.1678
G1 X91.257 Y75.742 E.01314
G1 X91.257 Y81.025 E.16564
G1 X90.838 Y80.98 E.01321
G1 X90.838 Y75.742 E.16421
G1 X90.419 Y75.742 E.01314
G1 X90.419 Y80.942 E.16303
G1 X90 Y80.942 E.01314
G1 X90 Y75.742 E.16303
G1 X89.581 Y75.742 E.01314
G1 X89.581 Y80.942 E.16303
G1 X89.162 Y80.98 E.01319
G1 X89.162 Y75.742 E.16421
G1 X88.743 Y75.742 E.01314
G1 X88.743 Y81.025 E.16564
G1 X88.324 Y81.094 E.01331
G1 X88.324 Y75.742 E.1678
G1 X87.905 Y75.742 E.01314
G1 X87.905 Y81.186 E.17069
G1 X87.486 Y81.289 E.01352
G1 X87.486 Y75.742 E.1739
G1 X87.067 Y75.742 E.01314
G1 X87.067 Y81.43 E.17832
G1 X86.648 Y81.571 E.01386
G1 X86.648 Y75.742 E.18275
G1 X86.229 Y75.742 E.01314
G1 X86.229 Y81.764 E.1888
G1 X85.81 Y81.958 E.01447
G1 X85.81 Y75.742 E.19488
G1 X85.391 Y75.742 E.01314
G1 X85.391 Y82.202 E.20253
G1 X84.972 Y82.454 E.01533
G1 X84.972 Y75.742 E.21043
G1 X84.553 Y75.742 E.01314
G1 X84.553 Y82.762 E.22011
G1 X84.134 Y83.081 E.0165
G1 X84.134 Y75.742 E.23009
G1 X83.715 Y75.742 E.01314
M73 P4 R42
G1 X83.715 Y83.477 E.2425
G1 X83.414 Y83.762 E.013
G1 X83.296 Y83.901 E.00571
G1 X83.296 Y75.742 E.25579
G1 X82.877 Y75.742 E.01314
G1 X82.877 Y84.394 E.27126
G1 X82.778 Y84.51 E.00479
G1 X82.458 Y84.982 E.01788
G1 X82.458 Y75.742 E.28971
G1 X82.039 Y75.742 E.01314
G1 X82.039 Y85.677 E.3115
G1 X81.767 Y86.191 E.01823
G1 X81.62 Y86.559 E.01243
G1 X81.62 Y75.742 E.33915
G1 X81.201 Y75.742 E.01314
G1 X81.201 Y87.831 E.37904
G1 X81.141 Y88.05 E.00711
G1 X80.982 Y89.019 E.0308
G1 X80.929 Y90 E.0308
G1 X80.982 Y90.981 E.0308
G1 X81.141 Y91.95 E.0308
G1 X81.201 Y92.169 E.00711
G1 X81.201 Y104.258 E.37904
G1 X81.62 Y104.258 E.01314
M73 P4 R41
G1 X81.62 Y93.441 E.33915
