; generated by PrusaSlicer 2.4.2+win64 on 2022-06-02 at 19:29:22 UTC


;
;

;
;
; 

; external perimeters extrusion width = 0.45mm
; perimeters extrusion width = 0.45mm
; infill extrusion width = 0.45mm
; solid infill extrusion width = 0.45mm
; top infill extrusion width = 0.40mm
; support material extrusion width = 0.35mm
; first layer extrusion width = 0.42mm

M73 P0 R76
M201 X2500 Y2500 Z400 E5000 ; sets maximum accelerations, mm/sec^2
M203 X180 Y180 Z12 E80 ; sets maximum feedrates, mm / sec
M204 P1250 R1250 T2500 ; sets acceleration (P, T) and retract acceleration (R), mm/sec^2
M205 X8.00 Y8.00 Z2.00 E10.00 ; sets the jerk limits, mm/sec
M205 S0 T0 ; sets the minimum extruding and travel feed rate, mm/sec
M107
;TYPE:Custom
M862.3 P "MINI" ; printer model check
G90 ; use absolute coordinates
M83 ; extruder relative mode
M104 S170 ; set extruder temp for bed leveling
M140 S60 ; set bed temp
M109 R170 ; wait for bed leveling temp
M190 S60 ; wait for bed temp
M204 T1250 ; set travel acceleration
G28 ; home all without mesh bed level
G29 ; mesh bed leveling 
M204 T2500 ; restore travel acceleration
M104 S215 ; set extruder temp
G92 E0
G1 Y-2 X179 F2400
G1 Z3 F720
M109 S215 ; wait for extruder temp

; intro line
G1 X170 F1000
G1 Z0.2 F720
G1 X110 E8 F900
G1 X40 E10 F700
G92 E0

M221 S95 ; set flow
G21 ; set units to millimeters
G90 ; use absolute coordinates
M83 ; use relative distances for extrusion
M900 K0.2 ; Filament gcode LA 1.5
; ; Filament gcode LA 1.0
M107
;LAYER_CHANGE
;Z:0.2
;HEIGHT:0.2
;BEFORE_LAYER_CHANGE
G92 E0.0
;0.2


G1 E-3.2 F4200
G1 Z.2 F720
;AFTER_LAYER_CHANGE
;0.2
G1 Z.4
G1 X54.247 Y55.085 F9000
G1 Z.2 F720
G1 E3.2 F2400
M204 P800
;TYPE:Skirt/Brim
;WIDTH:0.42
G1 F1200
G1 X57.667 Y51.875 E.14709
G1 X61.966 Y48.611 E.16925
G1 X66.593 Y45.829 E.16925
G1 X71.466 Y43.574 E.16837
G1 X76.607 Y41.838 E.17014
G1 X81.85 Y40.68 E.16836
G1 X87.202 Y40.09 E.16882
G1 X91.1 Y40.036 E.12224
G1 X93.136 Y40.114 E.06389
G1 X98.451 Y40.734 E.16777
G1 X103.397 Y41.839 E.15888
G1 X108.731 Y43.655 E.17669
G1 X113.446 Y45.85 E.16308
G1 X118.053 Y48.624 E.16859
G1 X122.351 Y51.89 E.16925
G1 X126.271 Y55.6 E.16925
G1 X129.769 Y59.712 E.16925
G1 X132.798 Y64.169 E.16898
G1 X135.335 Y68.937 E.16932
G1 X137.225 Y73.623 E.15845
G1 X138.797 Y79.149 E.18011
G1 X139.604 Y83.903 E.15119
G1 X139.751 Y85.252 E.04256
G1 X139.97 Y89.255 E.12569
G1 X139.95 Y91.971 E.08517
G1 X139.628 Y95.938 E.12478
G1 X138.71 Y101.21 E.16778
G1 X137.344 Y106.046 E.15758
G1 X135.215 Y111.312 E.17809
G1 X132.804 Y115.821 E.16031
G1 X129.77 Y120.286 E.16926
G1 X126.272 Y124.399 E.16927
G1 X122.479 Y127.999 E.16399
G1 X118.053 Y131.376 E.17454
G1 X113.666 Y134.026 E.1607
G1 X108.828 Y136.301 E.16763
G1 X107.46 Y136.805 E.04572
G1 X103.283 Y138.192 E.138
G1 X98.009 Y139.343 E.16925
G1 X92.767 Y139.913 E.16534
G1 X87.647 Y139.931 E.16052
G1 X82.001 Y139.345 E.17797
G1 X77.243 Y138.324 E.1526
G1 X75.919 Y137.949 E.04313
G1 X72.137 Y136.677 E.12511
G1 X70.767 Y136.124 E.04631
G1 X66.568 Y134.157 E.14541
G1 X61.943 Y131.373 E.16925
G1 X57.645 Y128.107 E.16925
G1 X53.725 Y124.396 E.16926
G1 X50.228 Y120.284 E.16925
G1 X47.134 Y115.719 E.17291
G1 X44.611 Y110.947 E.16926
G1 X42.724 Y106.226 E.15941
G1 X41.103 Y100.361 E.19078
G1 X40.296 Y95.338 E.15949
G1 X40.04 Y91.547 E.11914
G1 X40.017 Y89.727 E.05707
G1 X40.303 Y84.601 E.16097
G1 X41.175 Y79.274 E.16926
G1 X42.616 Y74.072 E.16925
G1 X44.438 Y69.449 E.15581
G1 X47.129 Y64.29 E.18242
G1 X49.867 Y60.211 E.15403
G1 X53.291 Y56.082 E.1682
G1 X54.205 Y55.129 E.0414
M204 P1000
G1 X54.477 Y55.39 F9000
M204 P800
G1 F1200
G1 X57.91 Y52.163 E.14771
G1 X62.177 Y48.923 E.168
G1 X66.77 Y46.162 E.168
G1 X71.606 Y43.923 E.16712
G1 X76.71 Y42.201 E.16889
G1 X81.914 Y41.051 E.16712
G1 X87.23 Y40.466 E.16767
G1 X91.095 Y40.413 E.12119
G1 X93.101 Y40.49 E.06296
G1 X98.377 Y41.104 E.16653
G1 X103.293 Y42.202 E.15795
G1 X108.581 Y44.001 E.17512
G1 X113.27 Y46.183 E.16216
G1 X117.842 Y48.936 E.16733
G1 X122.108 Y52.178 E.168
G1 X125.999 Y55.861 E.168
G1 X129.471 Y59.943 E.168
G1 X132.482 Y64.375 E.168
G1 X134.998 Y69.106 E.168
G1 X136.87 Y73.75 E.15701
G1 X138.43 Y79.237 E.17886
G1 X139.232 Y83.964 E.1503
G1 X139.375 Y85.282 E.04158
G1 X139.594 Y89.275 E.12538
G1 X139.573 Y91.953 E.08396
G1 X139.254 Y95.888 E.1238
G1 X138.344 Y101.121 E.16653
G1 X136.988 Y105.919 E.15633
G1 X134.875 Y111.149 E.17684
G1 X132.484 Y115.623 E.15906
G1 X129.472 Y120.055 E.16802
G1 X126.001 Y124.137 E.16802
G1 X122.227 Y127.718 E.16309
G1 X117.842 Y131.063 E.17295
G1 X113.472 Y133.703 E.16007
G1 X108.67 Y135.959 E.16636
G1 X107.337 Y136.448 E.04451
G1 X103.189 Y137.827 E.13706
G1 X97.954 Y138.97 E.168
G1 X92.742 Y139.536 E.1644
G1 X87.662 Y139.554 E.15928
G1 X82.056 Y138.972 E.17672
G1 X77.324 Y137.955 E.15174
G1 X72.258 Y136.319 E.16693
G1 X70.926 Y135.782 E.04503
G1 X66.745 Y133.824 E.14476
G1 X62.154 Y131.061 E.168
G1 X57.888 Y127.818 E.168
G1 X53.997 Y124.135 E.16801
G1 X50.526 Y120.053 E.168
G1 X47.46 Y115.529 E.17135
G1 X44.955 Y110.792 E.16802
G1 X43.074 Y106.087 E.15888
G1 X41.475 Y100.3 E.18824
G1 X40.671 Y95.298 E.15883
G1 X40.417 Y91.528 E.1185
G1 X40.394 Y89.746 E.05586
G1 X40.678 Y84.641 E.16033
G1 X41.543 Y79.353 E.16801
G1 X42.974 Y74.189 E.168
M73 P1 R76
G1 X44.789 Y69.588 E.15508
G1 X47.459 Y64.474 E.1809
G1 X50.179 Y60.423 E.15299
G1 X53.579 Y56.326 E.16692
G1 X54.436 Y55.433 E.0388
M204 P1000
G1 X54.707 Y55.694 F9000
M204 P800
G1 F1200
G1 X58.153 Y52.452 E.14833
G1 X62.389 Y49.236 E.16675
G1 X66.947 Y46.495 E.16675
G1 X71.747 Y44.273 E.16587
G1 X76.813 Y42.563 E.16764
G1 X81.979 Y41.423 E.16587
G1 X87.258 Y40.842 E.16652
G1 X91.09 Y40.79 E.12015
G1 X93.066 Y40.865 E.06203
G1 X98.302 Y41.474 E.16528
G1 X103.19 Y42.564 E.15702
G1 X108.431 Y44.347 E.17355
G1 X113.093 Y46.516 E.16124
G1 X117.631 Y49.249 E.16607
G1 X121.865 Y52.467 E.16675
G1 X125.727 Y56.123 E.16675
G1 X129.173 Y60.174 E.16675
G1 X132.161 Y64.573 E.16675
G1 X134.658 Y69.269 E.16675
G1 X136.499 Y73.834 E.15432
G1 X138.064 Y79.326 E.17907
G1 X138.86 Y84.025 E.14941
G1 X139 Y85.312 E.04061
G1 X139.217 Y89.295 E.12508
G1 X139.196 Y91.934 E.08274
G1 X138.88 Y95.839 E.12283
G1 X137.977 Y101.032 E.16529
M73 P1 R75
G1 X136.633 Y105.793 E.15509
G1 X134.535 Y110.985 E.1756
G1 X132.163 Y115.424 E.15782
G1 X129.174 Y119.824 E.16677
G1 X125.729 Y123.876 E.16677
G1 X121.976 Y127.436 E.16219
G1 X117.631 Y130.751 E.17135
G1 X113.278 Y133.379 E.15944
G1 X108.422 Y135.657 E.16817
G1 X107.215 Y136.091 E.04023
G1 X103.095 Y137.461 E.13611
G1 X97.9 Y138.597 E.16675
G1 X92.717 Y139.16 E.16346
G1 X87.677 Y139.177 E.15804
G1 X82.105 Y138.598 E.17562
G1 X77.405 Y137.587 E.15075
G1 X72.378 Y135.962 E.16565
G1 X71.084 Y135.44 E.04375
G1 X66.921 Y133.491 E.14411
G1 X62.365 Y130.748 E.16675
G1 X58.131 Y127.53 E.16675
G1 X54.269 Y123.873 E.16676
G1 X50.824 Y119.822 E.16675
G1 X47.786 Y115.339 E.1698
G1 X45.299 Y110.637 E.16677
G1 X43.425 Y105.948 E.15834
G1 X41.847 Y100.239 E.18569
G1 X41.046 Y95.259 E.15817
G1 X40.793 Y91.508 E.11786
G1 X40.77 Y89.766 E.05464
G1 X41.053 Y84.681 E.15969
G1 X41.912 Y79.432 E.16676
G1 X43.333 Y74.307 E.16675
G1 X45.139 Y69.728 E.15434
G1 X47.784 Y64.664 E.17914
G1 X50.491 Y60.634 E.15219
G1 X53.866 Y56.57 E.16565
G1 X54.666 Y55.737 E.0362
M204 P1000
G1 X54.938 Y55.998 F9000
M204 P800
G1 F1200
G1 X58.396 Y52.74 E.14897
G1 X62.6 Y49.548 E.1655
G1 X67.123 Y46.828 E.16551
G1 X71.888 Y44.623 E.16462
G1 X76.916 Y42.926 E.16639
G1 X82.043 Y41.794 E.16462
G1 X87.286 Y41.218 E.16537
G1 X91.084 Y41.167 E.11911
G1 X93.031 Y41.241 E.06109
G1 X98.228 Y41.843 E.16403
G1 X103.087 Y42.927 E.1561
G1 X108.28 Y44.693 E.17198
G1 X112.917 Y46.849 E.16032
G1 X117.42 Y49.561 E.16482
G1 X121.622 Y52.755 E.16551
G1 X125.456 Y56.384 E.1655
G1 X128.875 Y60.405 E.16551
G1 X131.841 Y64.772 E.16551
G1 X134.318 Y69.433 E.1655
G1 X136.146 Y73.967 E.15328
G1 X137.698 Y79.418 E.1777
G1 X138.488 Y84.086 E.14843
G1 X138.624 Y85.342 E.03963
G1 X138.841 Y89.316 E.12477
G1 X138.82 Y91.916 E.08152
G1 X138.506 Y95.789 E.12185
G1 X137.61 Y100.944 E.16404
G1 X136.278 Y105.666 E.15384
G1 X134.196 Y110.822 E.17435
G1 X131.842 Y115.226 E.15657
G1 X128.876 Y119.593 E.16552
G1 X125.457 Y123.615 E.16552
G1 X121.725 Y127.155 E.16128
G1 X117.42 Y130.438 E.16975
G1 X113.084 Y133.056 E.15881
G1 X108.272 Y135.311 E.1666
G1 X107.092 Y135.735 E.03933
G1 X103.002 Y137.096 E.13517
G1 X97.845 Y138.224 E.1655
G1 X92.692 Y138.784 E.16251
G1 X87.691 Y138.8 E.15681
G1 X82.16 Y138.225 E.17436
G1 X77.486 Y137.219 E.14991
G1 X72.498 Y135.605 E.16437
G1 X71.242 Y135.098 E.04247
G1 X67.098 Y133.158 E.14346
G1 X62.576 Y130.436 E.1655
G1 X58.374 Y127.241 E.1655
G1 X54.541 Y123.612 E.16551
G1 X51.122 Y119.591 E.1655
G1 X48.111 Y115.149 E.16825
G1 X45.643 Y110.483 E.16552
G1 X43.775 Y105.809 E.15781
G1 X42.22 Y100.179 E.18314
G1 X41.421 Y95.219 E.15751
G1 X41.17 Y91.489 E.11722
G1 X41.147 Y89.785 E.05342
G1 X41.428 Y84.72 E.15905
G1 X42.281 Y79.511 E.16551
G1 X43.691 Y74.424 E.1655
G1 X45.489 Y69.867 E.15361
G1 X48.11 Y64.854 E.17738
G1 X50.803 Y60.846 E.1514
G1 X54.154 Y56.814 E.16437
G1 X54.896 Y56.042 E.0336
M204 P1000
G1 X55.168 Y56.303 F9000
M204 P800
G1 F1200
G1 X58.638 Y53.029 E.1496
G1 X62.811 Y49.861 E.16426
G1 X67.3 Y47.161 E.16426
G1 X72.029 Y44.973 E.16337
G1 X77.019 Y43.289 E.16514
G1 X82.107 Y42.166 E.16337
G1 X87.314 Y41.594 E.16422
G1 X91.079 Y41.544 E.11807
G1 X92.996 Y41.616 E.06016
G1 X98.154 Y42.213 E.16278
G1 X102.984 Y43.29 E.15517
G1 X108.13 Y45.039 E.17041
G1 X112.74 Y47.183 E.15941
G1 X117.209 Y49.874 E.16356
G1 X121.379 Y53.044 E.16426
G1 X125.184 Y56.645 E.16426
G1 X128.577 Y60.636 E.16426
G1 X131.52 Y64.97 E.16426
G1 X133.978 Y69.596 E.16425
G1 X135.794 Y74.1 E.15225
G1 X137.331 Y79.506 E.17624
G1 X138.123 Y84.195 E.14908
G1 X138.464 Y89.336 E.16156
G1 X138.443 Y91.897 E.08031
G1 X138.132 Y95.74 E.12088
G1 X137.244 Y100.855 E.16279
G1 X135.923 Y105.539 E.15259
G1 X133.856 Y110.658 E.1731
G1 X131.522 Y115.028 E.15532
G1 X128.578 Y119.362 E.16427
G1 X125.185 Y123.354 E.16427
G1 X121.474 Y126.874 E.16038
G1 X117.209 Y130.126 E.16816
G1 X112.89 Y132.733 E.15818
G1 X108.123 Y134.965 E.16504
G1 X106.969 Y135.378 E.03842
G1 X102.908 Y136.731 E.13422
G1 X97.79 Y137.851 E.16425
G1 X92.668 Y138.408 E.16157
G1 X87.686 Y138.423 E.15619
G1 X82.215 Y137.852 E.17248
G1 X77.567 Y136.851 E.14907
G1 X72.619 Y135.247 E.16309
G1 X71.401 Y134.755 E.04119
G1 X67.275 Y132.825 E.14281
G1 X62.787 Y130.123 E.16426
G1 X58.617 Y126.953 E.16425
G1 X54.813 Y123.351 E.16426
G1 X51.42 Y119.36 E.16425
G1 X48.437 Y114.959 E.16669
G1 X45.986 Y110.328 E.16427
G1 X44.126 Y105.67 E.15727
G1 X42.592 Y100.118 E.18059
G1 X41.796 Y95.179 E.15685
G1 X41.546 Y91.469 E.11658
G1 X41.523 Y89.805 E.0522
G1 X41.803 Y84.76 E.15841
G1 X42.65 Y79.59 E.16426
G1 X44.049 Y74.542 E.16425
M73 P2 R75
G1 X45.84 Y70.007 E.15288
G1 X48.436 Y65.044 E.17561
G1 X51.115 Y61.058 E.1506
G1 X54.441 Y57.058 E.16309
G1 X55.126 Y56.346 E.03098
M204 P1000
G1 X55.398 Y56.607 F9000
M204 P800
G1 F1200
G1 X58.881 Y53.317 E.15024
G1 X63.022 Y50.173 E.16301
G1 X67.477 Y47.494 E.16301
G1 X72.17 Y45.323 E.16212
G1 X77.123 Y43.652 E.16389
G1 X82.172 Y42.537 E.16212
G1 X87.342 Y41.97 E.16307
G1 X91.074 Y41.921 E.11703
G1 X92.962 Y41.991 E.05923
G1 X98.079 Y42.583 E.16153
G1 X102.881 Y43.652 E.15424
G1 X107.98 Y45.385 E.16885
G1 X112.563 Y47.516 E.15849
G1 X116.998 Y50.186 E.1623
G1 X121.136 Y53.332 E.16301
G1 X124.912 Y56.907 E.16301
G1 X128.279 Y60.867 E.16301
G1 X131.199 Y65.169 E.16301
G1 X133.639 Y69.76 E.16301
G1 X135.441 Y74.233 E.15122
G1 X136.965 Y79.595 E.17478
G1 X137.75 Y84.25 E.14802
G1 X138.089 Y89.396 E.16169
G1 X138.066 Y91.879 E.07786
G1 X137.758 Y95.691 E.1199
G1 X136.877 Y100.767 E.16154
G1 X135.568 Y105.413 E.15134
G1 X133.516 Y110.495 E.17185
G1 X131.201 Y114.829 E.15407
G1 X128.281 Y119.131 E.16302
G1 X124.913 Y123.092 E.16302
G1 X121.223 Y126.593 E.15948
G1 X116.998 Y129.814 E.16656
G1 X112.696 Y132.41 E.15755
G1 X107.973 Y134.618 E.16347
G1 X106.847 Y135.022 E.03751
G1 X102.814 Y136.366 E.13328
G1 X97.736 Y137.478 E.163
G1 X92.643 Y138.031 E.16062
G1 X87.701 Y138.046 E.15494
G1 X82.27 Y137.479 E.17123
G1 X77.648 Y136.482 E.14823
G1 X72.739 Y134.89 E.16181
G1 X71.559 Y134.413 E.03991
G1 X67.452 Y132.492 E.14215
G1 X62.998 Y129.811 E.16301
G1 X58.86 Y126.664 E.16301
G1 X55.085 Y123.09 E.16301
G1 X51.718 Y119.129 E.163
G1 X48.763 Y114.769 E.16514
G1 X46.33 Y110.173 E.16302
G1 X44.476 Y105.531 E.15674
G1 X42.964 Y100.057 E.17805
G1 X42.171 Y95.139 E.1562
G1 X41.923 Y91.45 E.11594
G1 X41.9 Y89.824 E.05098
G1 X42.178 Y84.8 E.15777
G1 X43.018 Y79.669 E.16301
G1 X44.408 Y74.659 E.16301
G1 X46.19 Y70.146 E.15214
G1 X48.761 Y65.234 E.17385
G1 X51.427 Y61.269 E.1498
G1 X54.728 Y57.302 E.16181
G1 X55.356 Y56.651 E.02837
M204 P1000
G1 X55.627 Y56.912 F9000
M204 P800
G1 F1200
G1 X55.837 Y56.694 E.00948
G1 X59.124 Y53.606 E.14142
G1 X63.233 Y50.486 E.16176
G1 X67.654 Y47.827 E.16176
G1 X72.31 Y45.672 E.16087
G1 X77.226 Y44.014 E.16264
G1 X82.236 Y42.909 E.16087
G1 X87.37 Y42.346 E.16192
G1 X91.054 Y42.298 E.11553
G1 X92.927 Y42.367 E.05876
G1 X98.005 Y42.952 E.16029
G1 X102.778 Y44.015 E.15331
G1 X107.83 Y45.73 E.16728
G1 X112.387 Y47.849 E.15757
G1 X116.786 Y50.499 E.16104
G1 X120.894 Y53.621 E.16176
G1 X124.64 Y57.168 E.16176
G1 X127.981 Y61.099 E.16176
G1 X130.879 Y65.367 E.16176
G1 X133.299 Y69.923 E.16176
G1 X135.088 Y74.366 E.15018
G1 X136.598 Y79.684 E.17331
M73 P2 R74
G1 X137.377 Y84.305 E.14695
G1 X137.713 Y89.411 E.16043
G1 X137.69 Y91.861 E.07681
G1 X137.385 Y95.641 E.11892
G1 X136.511 Y100.678 E.16029
G1 X135.213 Y105.286 E.15009
G1 X133.176 Y110.331 E.1706
G1 X130.88 Y114.631 E.15282
G1 X127.983 Y118.9 E.16177
G1 X124.641 Y122.831 E.16177
G1 X120.971 Y126.311 E.15858
G1 X116.787 Y129.501 E.16497
G1 X112.502 Y132.086 E.15692
G1 X107.823 Y134.272 E.1619
G1 X106.724 Y134.665 E.0366
G1 X102.72 Y136 E.13234
G1 X97.681 Y137.105 E.16176
G1 X92.618 Y137.655 E.15968
G1 X87.716 Y137.669 E.15369
G1 X82.324 Y137.106 E.16999
G1 X77.729 Y136.114 E.1474
G1 X72.86 Y134.532 E.16053
G1 X71.705 Y134.065 E.03906
G1 X67.629 Y132.159 E.14107
G1 X63.209 Y129.498 E.16176
G1 X59.102 Y126.376 E.16176
G1 X55.357 Y122.828 E.16176
G1 X52.016 Y118.897 E.16176
G1 X49.191 Y114.741 E.15758
G1 X46.536 Y109.703 E.17855
G1 X44.766 Y105.225 E.15097
G1 X43.363 Y100.142 E.16531
G1 X42.546 Y95.099 E.16018
G1 X42.299 Y91.43 E.1153
G1 X42.277 Y89.843 E.04976
G1 X42.553 Y84.84 E.15713
G1 X43.387 Y79.748 E.16176
G1 X44.766 Y74.777 E.16176
G1 X46.54 Y70.286 E.15141
G1 X49.087 Y65.424 E.17209
G1 X51.739 Y61.481 E.149
G1 X55.016 Y57.547 E.16053
G1 X55.586 Y56.955 E.02574
M204 P1000
G1 E-2.24 F4200
;WIPE_START
G1 F7200
G1 X55.837 Y56.694 E-.20086
G1 X56.772 Y55.816 E-.71114
;WIPE_END
G1 E-.048 F4200
G1 Z.4 F720
G1 X57.599 Y58.915 F9000
G1 Z.2 F720
G1 E3.2 F2400
M204 P800
G1 F1200
G1 X57.817 Y58.691 E.00981
G1 X60.938 Y55.754 E.13437
G1 X64.431 Y53.083 E.13789
G1 X64.79 Y52.827 E.0138
G1 X68.533 Y50.559 E.13723
G1 X68.956 Y50.32 E.01523
G1 X72.88 Y48.488 E.1358
G1 X73.366 Y48.278 E.01659
G1 X77.966 Y46.727 E.15221
G1 X82.713 Y45.68 E.15241
G1 X87.551 Y45.152 E.15258
G1 X91.046 Y45.11 E.10959
G1 X91.761 Y45.12 E.02244
G1 X92.655 Y45.165 E.02806
G1 X97.439 Y45.706 E.15095
G1 X102.04 Y46.729 E.14779
G1 X106.7 Y48.305 E.15425
G1 X111.06 Y50.328 E.15071
G1 X115.22 Y52.833 E.15224
G1 X119.091 Y55.778 E.1525
G1 X122.62 Y59.124 E.15249
G1 X125.755 Y62.816 E.15186
G1 X128.474 Y66.824 E.15186
G1 X130.754 Y71.12 E.15249
G1 X132.453 Y75.346 E.14282
G1 X132.741 Y76.247 E.02966
G1 X133.861 Y80.324 E.13255
G1 X134.597 Y84.722 E.13981
G1 X134.694 Y85.662 E.02963
G1 X134.916 Y90.008 E.13645
G1 X134.881 Y91.728 E.05392
G1 X134.654 Y94.841 E.09789
G1 X134.598 Y95.268 E.01349
G1 X133.97 Y99.099 E.12171
G1 X133.783 Y99.999 E.02883
G1 X132.557 Y104.362 E.1421
G1 X131.02 Y108.249 E.13107
G1 X130.641 Y109.115 E.02962
G1 X128.473 Y113.177 E.14438
G1 X125.742 Y117.201 E.15248
G1 X122.606 Y120.891 E.15185
G1 X119.092 Y124.22 E.15176
G1 X115.219 Y127.167 E.15258
G1 X111.069 Y129.667 E.15191
G1 X106.701 Y131.695 E.151
